X: 138
T: No_221_Ball_Game_Song_(d).krn
N: Derived from No_221_Ball_Game_Song_(d).krn
%%abc-version 2.0
%%abcx-abcm2ps-target-version 5.9.1 (29 Sep 2008)
%%abc-creator hum2abc beta
%%abcx-conversion-date 2019/03/15 08:38:45
%%humdrum-veritas 3650016349
%%humdrum-veritas-data 2762085177
%%linebreak <none>
%%barnumbers 0
L: 1/8
M: 2/4
K: Eb clef=bass
[K:clef=bass][M:2/4]B,3/C/ B,A,/G,/ | 
G,E, E, z | 
E,3/G,/ E,G,/G,/ ||  
[M:3/8]G,E,E, | 
B,/B,/A,G,/E,/ ||  
[M:2/4]G,E, E, z | 
E,3/G,/ E,G,/G,/ ||  
[M:3/8]G,E,!fermata!E, ||  
[M:2/4]B,3/C/ B,/A,/A,/G,/ | 
B,A, A, z | 
B,3/C/ B,/A,/G,/E,/ ||  
[M:3/4]G,E, E,B,/ z/ !accent!A,G,/E,/ ||  
[M:2/4]G,E, E, z | 
E,3/G,/ E,G,/G,/ ||  
[M:3/8]G,E,E, ||  
[M:2/4]B,3/C/ B,/A,/A,/ z/ | 
B,A,/G,/ A, z ]|:  
B,3/C/ (B,/A,/)(G,/E,/) ||  
[M:3/8]G,E,!fermata!E, | 
G,3//A,//G,/A,/G,/E,/ ||  
[M:2/4]G,E, E, z | 
E,3/G,/ E,G,/G,/ ||  
[M:3/8]G,E,E, | 
B,/ z/ A,G,/E,/ ||  
[M:2/4]G,E, E, z | 
E,3/G,/ E,G,/G,/ ||  
[M:3/8]G,E,E, ||  
[M:2/4]B,3/B,/ (B,/A,/)(A,/G,/) | 
B,A,/G,/ A, z :|]  



